build/img/icon-category/icon-category-21.svg

<svg width="26" height="24" viewBox="0 0 26 24" fill="none" xmlns="http://www.w3.org/2000/svg">
<path d="M24.0409 8H17.0155V1H8.98639V8H1.96094V16H8.98639V23H17.0155V16H24.0409V8Z" stroke="#2C8ECC" stroke-width="2" stroke-miterlimit="10" stroke-linecap="square"/>
</svg>

<svg width="26" height="24" fill="none" xmlns="http://www.w3.org/2000/svg"><path d="M24.04 8h-7.024V1h-8.03v7H1.961v8h7.025v7h8.03v-7h7.025V8z" stroke="#2C8ECC" stroke-width="2" stroke-miterlimit="10" stroke-linecap="square"/></svg>
